public/img/wjtb.svg

<?xml version="1.0" encoding="UTF-8" standalone="no"?>
<!-- Creator: CorelDRAW 2021 (64-Bit Not for commercial use) -->

<svg
   xml:space="preserve"
   width="16.657045in"
   height="5.9253297in"
   version="1.1"
   style="clip-rule:evenodd;fill-rule:evenodd;image-rendering:optimizeQuality;shape-rendering:geometricPrecision;text-rendering:geometricPrecision"
   viewBox="0 0 16657.045 5925.3297"
   id="svg42"
   xmlns="http://www.w3.org/2000/svg"
   xmlns:svg="http://www.w3.org/2000/svg">
 <defs
   id="defs4"><style
     type="text/css"
     id="style2">
   <![CDATA[
    .str0 {stroke:#373435;stroke-width:6.94;stroke-miterlimit:2.61313}
    .fil1 {fill:#FEFEFE}
    .fil7 {fill:#373435}
    .fil3 {fill:#5B5D5E}
    .fil10 {fill:#4A4A4A}
    .fil5 {fill:#4B4D4D}
    .fil8 {fill:#484A4A}
    .fil9 {fill:#484D4D}
    .fil4 {fill:#434545}
    .fil2 {fill:#434547}
    .fil6 {fill:#383939}
    .fil0 {fill:#282829}
   ]]>
  </style></defs>
 <g
   id="Layer_x0020_1"
   transform="translate(-129.27,-2439.62)">
  <metadata
   id="CorelCorpID_0Corel-Layer" />
  
  
  
  
  
  
  
  
  
  
  <g
   id="g218"><polygon
     class="fil1"
     points="3205.01,8364.93 3031.29,8364.93 2897.53,8364.93 129.27,2439.63 1223.4,2439.63 3045.49,6342.76 3731.38,4866.95 3921.43,5282.57 4275.19,6056.2 "
     id="polygon9" /><polygon
     class="fil1"
     points="5641.54,8364.93 2873.37,2439.63 3951.44,2439.63 5779.1,6342.76 7025.61,3709.76 7025.61,6084.87 5946.13,8364.93 "
     id="polygon15" /><path
     class="fil1"
     d="m 6237.49,3424.19 139.37,0.87 903.73,5.62 v 3939.88 l -486.81,-4.3 h -109.86 l -461.41,998.67 h 100.61 c 333.63,0 667.27,0 1000.91,0 573.72,-93.37 866.63,-419.15 950.53,-917.9 V 2439.62 H 5779.28 l 458.22,984.56 z"
     id="path21" /><path
     id="path27"
     class="fil1"
     d="m 8528.1982,2439.6362 v 995.7276 l 999.1862,-10.2946 8.5043,4939.8803 h 988.2003 V 3425.0692 l 4799.621,10.7829 c 271.35,28.4099 434.023,169.5877 468.893,429.6875 v 555.1961 c -32.93,292.2197 -181.337,442.7239 -426.657,474.2838 l -2581.949,-2.7669 -11.007,-1205.6478 h -985.453 l -5.494,4678.3244 h 4087.647 c 539.129,-106.2599 858.716,-408.9406 916.626,-945.7601 V 6337.382 c -58.07,-433.6096 -183.606,-754.7795 -393.636,-935.0993 224.63,-206.6898 366.796,-553.5072 393.636,-1044.0267 v -935.8927 c -59.1,-570.9494 -362.723,-892.9972 -894.592,-982.7271 H 8528.2389 Z m 6803.2028,3450.6633 c 101.619,-7.61 256.794,89.2785 331.644,170.8984 74.64,81.3899 116.862,219.4767 116.862,318.1966 v 553.9958 c 0,95.4099 -72.887,208.9421 -141.907,279.012 -71.069,72.15 -149.381,124.3945 -278.381,147.6644 h -2579.02 l 0.02,-0.02 V 5893.1071 Z" /></g>
  
  
  
  
  
  
 </g>
</svg>

<?xml version="1.0" encoding="UTF-8" standalone="no"?>
<!-- Creator: CorelDRAW 2021 (64-Bit Not for commercial use) -->

<svg
   xml:space="preserve"
   width="17in"
   height="11in"
   version="1.1"
   style="shape-rendering:geometricPrecision; text-rendering:geometricPrecision; image-rendering:optimizeQuality; fill-rule:evenodd; clip-rule:evenodd"
   viewBox="0 0 17000 11000"
   id="svg42"
   sodipodi:docname="WJTBlogo_noshadow.svg"
   inkscape:version="1.2.2 (b0a8486541, 2022-12-01)"
   xmlns:inkscape="http://www.inkscape.org/namespaces/inkscape"
   xmlns:sodipodi="http://sodipodi.sourceforge.net/DTD/sodipodi-0.dtd"
   xmlns="http://www.w3.org/2000/svg"
   xmlns:svg="http://www.w3.org/2000/svg"><sodipodi:namedview
   id="namedview44"
   pagecolor="#000000"
   bordercolor="#666666"
   borderopacity="1.0"
   inkscape:showpageshadow="2"
   inkscape:pageopacity="0"
   inkscape:pagecheckerboard="0"
   inkscape:deskcolor="#d1d1d1"
   inkscape:document-units="in"
   showgrid="false"
   inkscape:zoom="0.35355339"
   inkscape:cx="1298.2481"
   inkscape:cy="909.33932"
   inkscape:window-width="1920"
   inkscape:window-height="1016"
   inkscape:window-x="0"
   inkscape:window-y="0"
   inkscape:window-maximized="1"
   inkscape:current-layer="Layer_x0020_1" />
 <defs
   id="defs4">
  <style
   type="text/css"
   id="style2">
   <![CDATA[
    .str0 {stroke:#373435;stroke-width:6.94;stroke-miterlimit:2.61313}
    .fil1 {fill:#FEFEFE}
    .fil7 {fill:#373435}
    .fil3 {fill:#5B5D5E}
    .fil10 {fill:#4A4A4A}
    .fil5 {fill:#4B4D4D}
    .fil8 {fill:#484A4A}
    .fil9 {fill:#484D4D}
    .fil4 {fill:#434545}
    .fil2 {fill:#434547}
    .fil6 {fill:#383939}
    .fil0 {fill:#282829}
   ]]>
  </style>
 </defs>
 <g
   id="Layer_x0020_1"
   inkscape:label="Layer 1">
  <metadata
   id="CorelCorpID_0Corel-Layer" />
  
  
  
  
  
  
  
  
  
  
  <g
   id="g218"><polygon
     class="fil1"
     points="129.27,2439.63 1223.4,2439.63 3045.49,6342.76 3731.38,4866.95 3921.43,5282.57 4275.19,6056.2 3205.01,8364.93 3031.29,8364.93 2897.53,8364.93 "
     id="polygon9" /><polygon
     class="fil1"
     points="2873.37,2439.63 3951.44,2439.63 5779.1,6342.76 7025.61,3709.76 7025.61,6084.87 5946.13,8364.93 5641.54,8364.93 "
     id="polygon15" /><path
     class="fil1"
     d="M6237.49 3424.19l139.37 0.87 903.73 5.62 0 3939.88 -486.81 -4.3 -109.86 0 -461.41 998.67 100.61 0c333.63,0 667.27,0 1000.91,0 573.72,-93.37 866.63,-419.15 950.53,-917.9l0 -5007.41 -2495.28 0 458.22 984.56z"
     id="path21" /><path
     id="path27"
     class="fil1"
     d="M 8528.1982 2439.6362 L 8528.1982 3435.3638 L 9527.3844 3425.0692 L 9535.8887 8364.9495 L 10524.089 8364.9495 L 10524.089 3425.0692 L 15323.71 3435.8521 C 15595.06 3464.262 15757.733 3605.4398 15792.603 3865.5396 L 15792.603 4420.7357 C 15759.673 4712.9554 15611.266 4863.4596 15365.946 4895.0195 L 12783.997 4892.2526 L 12772.99 3686.6048 L 11787.537 3686.6048 L 11782.043 8364.9292 L 15869.69 8364.9292 C 16408.819 8258.6693 16728.406 7955.9886 16786.316 7419.1691 L 16786.316 6337.382 C 16728.246 5903.7724 16602.71 5582.6025 16392.68 5402.2827 C 16617.31 5195.5929 16759.476 4848.7755 16786.316 4358.256 L 16786.316 3422.3633 C 16727.216 2851.4139 16423.593 2529.3661 15891.724 2439.6362 L 8528.2389 2439.6362 L 8528.1982 2439.6362 z M 15331.401 5890.2995 C 15433.02 5882.6895 15588.195 5979.578 15663.045 6061.1979 C 15737.685 6142.5878 15779.907 6280.6746 15779.907 6379.3945 L 15779.907 6933.3903 C 15779.907 7028.8002 15707.02 7142.3324 15638 7212.4023 C 15566.931 7284.5523 15488.619 7336.7968 15359.619 7360.0667 L 12780.599 7360.0667 L 12780.619 7360.0464 L 12780.619 5893.1071 L 15331.401 5890.2995 z " /></g>
  
  
  
  
  
  
 </g>
</svg>
